X: 1
T: Raddire en Ougnish
B: A COLECTION of the most Celebrated Irish Tunes15a
N: The last bar has an extra 1/4 note.
M: 3/2
L: 1/8
K: Gm
%%slurgraces 1
Bc | c2c2 B2G2 F2(DC) | D4 F4 F4 | B2G2 (BG)(FD) F2GA | (B3c) Tc3B G4 |
(dc)B2 (GF)D2 F4 | BcBA GAG^F G3A | B3c dcd=e f2d2 | TB3A TA4 G2 :|
|: z2 | c2d2 f3g (fg)(fd) | f4 Td4 {c}B4 | c2d2 f2{ef}g2 f2c2 | d4 g4 gfga |
b2g2 (ag)(fd) (fd)(cB) | c4 {Bc}d4 F4 | (dc)B2 BAG2 TF2(DC) | D4 G4 G4 :|
